X: 495
T: A' Chiad Cheum
R: barndance
M: 4/4
K: Dmajor
fgfe d2 fa-|a2 fd e2de|fgfe dedB|AFdA B4|
fgfe d2 fa-|a2 fd e2de|fgfe dedB|AFdA B4||
BGBd cAce|dAfd e2dc|BGBd cAce|dAFE D4|
BGBd cAce|dAfd e2dc|BGBd cAce|[M:3/2] dAfe d6 dc||
BAGF E2DE|F2 D2 D2 dc|BAGF E2DE|F2 A2 B3 d|
BAGF E2DE|FAFE D2 dc|BAGF E2DE|F2 A2 B4-|B8||

